X: 33855
T: Rectory, The
R: reel
M: 4/4
K: Dminor
dfec dA A2|GBAG FDDG|DAFD EGcG|Adfd egfe|
dfec dA A2|GBAG FDDG|DAFD EGcG|Afec d2 de|
eddc dA A2|GBAG FDDG|DAFD EGcG|Adfd egfe|
d2 ec dA A2|GBAG FDDG|DAFD EGcG|Afec d2 de||
|:edAd edad|dcGc egfe|fdAd fdaf|gecd ed d2|
edAd edad|dcGc egfe|d2 ec dA A2|GBAG FD D2:|
DAFD EGcG|Adfd cGEG|DAFD EG c2|GEGD EDDG|
DAFD EGcG|Adfe dfec|d2 ec dA A2|GBAG FDDG|
DAFD EGcG|Adfd cGEG|DAFD EG c2|GEGD EDDG|
DAFD EGcG|Adfe defg|afdf gece|fdBd e/f/g fe||

